X: 1
P: Da Rain Dancin'
C: Muriel Johnstone
R: reel
B: The Whiteaddr Collection, 1993
D: Dancing Fingers Vol.III
N:
N: Muriel Johnstone and Bill Zobel   Tel. 0890 818884
N: Scotscores, Muse Cottage, Allanton, Duns, Beerwiskshire, TD11 3JZ, Scotland
Z: 1997 by John Chambers <jc@trillian.mit.edu>
M: C|
L: 1/8
K: D
g \
|: "D"fedc "Bm"dBfB | dBfB "A"eAce | "D"fedc "Bm"dBb2- | "G"bafa "A7"gfeg |
| "D"fedc "Bm"dBfB | dBfB "A"eAce | "D"fedc "G"dBb2- | "A"bafa "A7"gfeg |
| "D"fAAA aAfA | "Bm"dBBB bB"A7"ag | "D"fAdc "Bm"dBfe | "G"fagf "A7"edce |
| "D"fAAA aAfA | "Bm"dBBB bB"A7"ag | "D"fagf "G"edcB | "A"cAeA fAeA :| "A7"AGFE "D"HD3 |]
